assets/svg/meditation-yoga_01.svg

<svg width="256" height="256" viewBox="0 0 256 256" fill="none" xmlns="http://www.w3.org/2000/svg">
<path d="M230.881 177.81C228.891 176.05 225.411 177.04 220.991 178.28C218.982 178.916 216.925 179.387 214.841 179.69C210.791 180.08 208.641 181.78 207.541 183.23C204.431 181.66 197.731 177.88 194.861 173.28C190.901 166.94 184.091 161.03 182.811 159.96C178.401 153.85 174.251 145.7 170.581 138.5C167.431 132.32 164.461 126.49 161.781 122.85C158.508 118.331 153.677 115.185 148.221 114.02C147.991 113.97 147.761 113.92 147.531 113.88L147.321 113.85C145.124 113.569 142.987 112.938 140.991 111.98C138.441 110.63 137.001 108.49 137.001 104.8V102.4C139.979 101.582 142.786 100.237 145.291 98.43C147.045 101.361 149.532 103.785 152.508 105.463C155.483 107.141 158.844 108.015 162.26 108H168.95C169.48 107.998 169.987 107.787 170.362 107.412C170.737 107.038 170.948 106.53 170.95 106V88.14C170.959 82.1111 168.905 76.2604 165.13 71.56C165.58 70.8769 165.892 70.1127 166.05 69.31L166.5 67.08C166.688 66.1415 166.665 65.173 166.433 64.2444C166.201 63.3157 165.766 62.4501 165.16 61.71C164.599 61.026 163.9 60.4673 163.11 60.07L164.75 49.65C165.563 44.5099 165.253 39.2547 163.84 34.246C162.428 29.2372 159.948 24.594 156.569 20.6358C153.191 16.6776 148.995 13.4984 144.27 11.3171C139.545 9.13577 134.404 8.00411 129.2 8H126.24C121.036 8.00411 115.894 9.13577 111.17 11.3171C106.445 13.4984 102.249 16.6776 98.8702 20.6358C95.4917 24.594 93.011 29.2372 91.5988 34.246C90.1865 39.2547 89.8764 44.5099 90.6896 49.65L92.3196 60.07C91.5326 60.4682 90.8377 61.0269 90.2796 61.71C89.6686 62.4478 89.231 63.3133 88.9991 64.2427C88.7672 65.1721 88.7469 66.1417 88.9396 67.08L89.3796 69.31C89.6732 70.7738 90.4638 72.0911 91.6174 73.0387C92.771 73.9864 94.2167 74.5062 95.7096 74.51H95.9396C97.6996 87.02 106.74 99.57 119 102.55V104.8C119 108.48 117.56 110.63 115 111.98C112.975 112.94 110.812 113.575 108.59 113.86L108.48 113.88C108.25 113.92 108.01 113.97 107.78 114.02C102.323 115.184 97.4911 118.33 94.2196 122.85C91.5396 126.49 88.5696 132.32 85.4196 138.5C81.7496 145.7 77.5996 153.85 73.1896 159.96C71.9096 161.03 65.0996 166.94 61.1396 173.28C58.2696 177.88 51.5696 181.66 48.4596 183.23C47.3596 181.78 45.2096 180.08 41.1596 179.69C39.0748 179.387 37.0181 178.916 35.0096 178.28C30.5896 177.04 27.1096 176.05 25.1196 177.81C24.66 178.234 24.3201 178.771 24.134 179.368C23.948 179.965 23.9223 180.6 24.0596 181.21C24.6596 185.16 28.6296 192.64 34.5396 196.41C36.3807 197.633 38.469 198.435 40.6557 198.758C42.8423 199.082 45.0734 198.918 47.1896 198.28C48.2496 197.97 49.3396 197.59 50.4596 197.15C50.0518 198.284 49.7799 199.462 49.6496 200.66C49.2628 203.447 49.4604 206.284 50.23 208.99C50.9996 211.697 52.3242 214.214 54.1196 216.38C58.6796 221.92 66.4196 225.9 76.4596 228.89C71.8696 229.41 67.8096 230.58 66.5396 232.96C66.1906 233.637 66.0419 234.399 66.111 235.157C66.1801 235.915 66.4641 236.638 66.9296 237.24C67.2696 237.75 67.6096 238.28 67.9496 238.81C70.5796 242.91 73.8496 248 79.9096 248C83.3952 248.081 86.8805 247.833 90.3196 247.26C91.7196 247.08 93.4696 246.85 95.7196 246.57C102.679 245.773 109.323 243.223 115.03 239.16L116.72 237.93C120.56 237.62 124.32 237.31 127.99 236.97C131.69 237.31 135.46 237.62 139.28 237.93L140.9 239.1C146.621 243.201 153.295 245.773 160.29 246.57C162.54 246.86 164.3 247.08 165.7 247.26C169.132 247.833 172.611 248.081 176.09 248C182.14 248 185.41 242.91 188.04 238.82C188.38 238.28 188.72 237.75 189.07 237.24C189.535 236.639 189.819 235.918 189.888 235.162C189.957 234.405 189.808 233.645 189.46 232.97C188.19 230.6 184.16 229.42 179.6 228.89C195.1 224.32 208.11 216.41 206.35 200.66C206.221 199.461 205.945 198.282 205.53 197.15C206.65 197.59 207.75 197.97 208.81 198.28C210.926 198.918 213.157 199.082 215.344 198.758C217.53 198.435 219.619 197.633 221.46 196.41C227.37 192.64 231.34 185.16 231.94 181.21C232.077 180.6 232.052 179.965 231.866 179.368C231.68 178.771 231.34 178.234 230.881 177.81V177.81ZM155.951 147.46C160.161 155.07 165.331 162.97 167.311 165.98C169.181 168.83 172.171 174.74 172.201 174.8C172.291 174.981 172.409 175.146 172.551 175.29C176.773 179.294 181.314 182.946 186.131 186.21C175.211 185.16 161.651 187.06 150.011 189.19C150.136 184.905 150.692 180.644 151.671 176.47C152.311 173.67 153.061 171.11 153.761 168.66C155.611 162.24 157.241 156.61 156.361 149.88C156.26 149.09 156.12 148.28 155.95 147.46H155.951ZM138.861 191.36C135.28 192.196 131.653 192.824 128 193.24H127.99C126.45 193.24 122.14 192.37 117.14 191.36C114.763 190.875 112.383 190.405 110 189.95C109.943 185.903 109.518 181.87 108.73 177.9H147.27C146.481 181.87 146.056 185.903 146 189.95C143.47 190.43 141.08 190.91 138.86 191.36H138.861ZM99.6396 149.88C98.7596 156.61 100.39 162.24 102.24 168.66C102.94 171.11 103.69 173.67 104.33 176.47C105.308 180.644 105.865 184.905 105.99 189.19C94.3496 187.06 80.7896 185.16 69.8696 186.21C74.686 182.946 79.2277 179.294 83.4496 175.29C83.5915 175.146 83.7097 174.981 83.7996 174.8C83.8296 174.74 86.8196 168.83 88.6896 165.98C90.6696 162.97 95.8396 155.07 100.05 147.46C99.8796 148.28 99.7396 149.09 99.6396 149.88ZM162.58 66.3L162.13 68.53C162.022 69.0758 161.732 69.5685 161.306 69.9268C160.881 70.285 160.346 70.4872 159.79 70.5C159.8 70.38 159.8 70.26 159.8 70.14V63.35H160.17C160.533 63.3528 160.892 63.4357 161.22 63.5928C161.548 63.7499 161.837 63.9774 162.067 64.2591C162.297 64.5407 162.463 64.8696 162.551 65.2224C162.64 65.5751 162.649 65.9431 162.58 66.3V66.3ZM93.2996 68.53L92.8596 66.3C92.7874 65.9428 92.7953 65.574 92.8829 65.2203C92.9705 64.8665 93.1356 64.5366 93.3661 64.2544C93.5967 63.9721 93.8871 63.7446 94.2162 63.5882C94.5454 63.4318 94.9052 63.3505 95.2696 63.35H95.6296V70.14C95.6296 70.26 95.6296 70.38 95.6396 70.5C95.084 70.4856 94.5498 70.2828 94.1246 69.9248C93.6994 69.5669 93.4085 69.075 93.2996 68.53ZM99.6396 70.48C99.6296 70.37 99.6296 70.25 99.6296 70.14V58.61C99.6125 56.6831 100.207 54.8004 101.329 53.2333C102.45 51.6662 104.04 50.4956 105.87 49.89C111.101 48.3226 115.554 44.8507 118.35 40.16C122.05 45.95 131.68 56.39 153.48 57.65C154.108 57.6853 154.698 57.9601 155.13 58.4177C155.561 58.8753 155.801 59.481 155.8 60.11V70.14C155.8 70.25 155.8 70.37 155.79 70.48C155.621 75.0775 154.478 79.5866 152.435 83.7087C150.392 87.8308 147.496 91.4716 143.94 94.39C140.272 97.4271 135.681 99.1268 130.92 99.21H124.52C123.525 99.2112 122.531 99.131 121.55 98.97C109.11 96.99 99.7996 82.87 99.6396 70.48V70.48ZM123 104.8V103.16C123.5 103.19 124.01 103.21 124.52 103.21H130.92C131.62 103.21 132.32 103.18 133 103.12V104.8C133 109.97 135.23 113.01 138 114.86V121.83C138 124.482 136.946 127.026 135.071 128.901C133.195 130.776 130.652 131.83 128 131.83C125.347 131.83 122.804 130.776 120.929 128.901C119.053 127.026 118 124.482 118 121.83V114.86C120.77 113.01 123 109.97 123 104.8ZM46.0596 194.44C44.4917 194.921 42.8361 195.043 41.2145 194.799C39.5929 194.555 38.0466 193.951 36.6896 193.03C32.492 190.085 29.4428 185.778 28.0596 180.84C30.0473 181.096 32.0083 181.528 33.9196 182.13C36.1593 182.834 38.454 183.349 40.7796 183.67C44.9596 184.07 45.6696 186.27 45.6796 186.3C45.7447 186.587 45.8726 186.856 46.054 187.087C46.2354 187.319 46.4658 187.507 46.7287 187.639C46.9917 187.771 47.2805 187.843 47.5746 187.85C47.8687 187.857 48.1607 187.799 48.4296 187.68C48.8996 187.48 60.0896 182.52 64.5296 175.4C68.4696 169.09 75.8596 162.93 75.9396 162.87C76.063 162.76 76.1768 162.639 76.2796 162.51C80.9296 156.13 85.2096 147.72 88.9796 140.31C92.0496 134.29 94.9496 128.59 97.4396 125.22C99.6867 122.122 102.827 119.784 106.44 118.52C106.57 122.68 106.55 131.51 104.52 139.25C104.151 138.792 103.653 138.457 103.09 138.29C102.402 138.075 101.661 138.116 101.001 138.404C100.342 138.693 99.8083 139.21 99.4996 139.86C95.2896 148.6 87.7996 160.03 85.3396 163.79C83.5696 166.49 81.0096 171.48 80.3696 172.72C76.3796 176.76 66.6096 184.21 57.2596 189.42C53.7186 191.493 49.9634 193.176 46.0596 194.44V194.44ZM112.61 235.97C107.448 239.579 101.474 241.857 95.2196 242.6C92.9596 242.89 91.2096 243.11 89.8096 243.29C86.5399 243.842 83.2247 244.08 79.9096 244C76.0396 244 73.6396 240.26 71.3196 236.65C70.9596 236.09 70.6096 235.54 70.2596 235.02C70.2033 234.946 70.1563 234.865 70.1196 234.78C70.7696 234.01 74.9396 232.49 84.1596 232.49C85.3696 232.49 86.4896 232.53 87.5796 232.57C89.1914 232.67 90.8078 232.67 92.4196 232.57C98.8696 233.73 105.86 234.68 113.25 235.51L112.61 235.97ZM185.88 234.78C185.85 234.83 185.81 234.91 185.74 235.02C185.39 235.55 185.03 236.1 184.67 236.66C182.35 240.27 179.96 244 176.09 244C172.781 244.081 169.473 243.843 166.21 243.29C164.8 243.11 163.05 242.89 160.78 242.61C154.493 241.869 148.492 239.569 143.32 235.92L141.17 234.36C140.871 234.15 140.523 234.022 140.16 233.99C137.73 233.79 135.31 233.59 132.92 233.39C133.988 230.473 134.642 227.419 134.86 224.32C135.53 224.75 136.21 225.19 136.9 225.64C137.047 225.74 137.209 225.818 137.38 225.87L140.12 226.75C140.406 226.843 140.709 226.87 141.007 226.829C141.305 226.787 141.59 226.678 141.84 226.51C144.64 224.65 150.93 222.46 154.69 227.46C155.623 228.855 156.851 230.029 158.287 230.9C159.722 231.771 161.331 232.317 163 232.5C163.128 232.528 163.259 232.542 163.39 232.54C165.064 232.665 166.744 232.675 168.42 232.57C169.48 232.53 170.62 232.49 171.85 232.49C181.06 232.49 185.23 234.01 185.88 234.78V234.78ZM219.31 193.03C217.953 193.951 216.406 194.555 214.785 194.799C213.163 195.043 211.507 194.921 209.94 194.44C206.036 193.176 202.281 191.493 198.74 189.42C189.39 184.21 179.62 176.76 175.63 172.72C174.99 171.48 172.43 166.49 170.66 163.79C168.2 160.03 160.71 148.6 156.5 139.86C156.191 139.21 155.658 138.693 154.998 138.404C154.338 138.116 153.597 138.075 152.91 138.29C152.347 138.457 151.848 138.792 151.48 139.25C149.45 131.51 149.43 122.68 149.56 118.52C153.172 119.784 156.313 122.122 158.56 125.22C161.05 128.59 163.95 134.29 167.02 140.31C170.79 147.72 175.07 156.13 179.72 162.51C179.822 162.639 179.936 162.76 180.06 162.87C180.14 162.93 187.53 169.09 191.47 175.4C195.91 182.52 207.1 187.48 207.57 187.68C207.833 187.804 208.121 187.868 208.413 187.867C208.704 187.866 208.992 187.799 209.254 187.673C209.517 187.546 209.748 187.363 209.93 187.136C210.113 186.909 210.242 186.644 210.31 186.36C210.33 186.27 211.04 184.07 215.22 183.67C217.545 183.349 219.84 182.834 222.08 182.13C223.981 181.514 225.936 181.082 227.92 180.84H227.94C226.557 185.778 223.508 190.085 219.311 193.03H219.31Z" fill="#0E384A"/>
<path d="M135.281 71.5801C137.383 72.4427 139.629 72.904 141.901 72.9401C144.026 73.0297 146.126 72.4566 147.911 71.3001C148.317 70.9769 148.582 70.5081 148.65 69.993C148.717 69.4778 148.581 68.9568 148.271 68.5401C147.954 68.1217 147.486 67.843 146.968 67.7628C146.449 67.6826 145.919 67.8071 145.491 68.1101C145.371 68.2001 142.551 70.1201 136.721 67.8501C136.23 67.6768 135.691 67.7017 135.219 67.9193C134.746 68.1369 134.377 68.5302 134.189 69.0157C134.002 69.5011 134.011 70.0405 134.215 70.5193C134.419 70.9981 134.801 71.3786 135.281 71.5801V71.5801ZM121.861 68.9901C121.766 68.7458 121.625 68.5225 121.444 68.333C121.263 68.1435 121.047 67.9914 120.807 67.8856C120.567 67.7797 120.309 67.7221 120.047 67.716C119.786 67.7099 119.525 67.7555 119.281 67.8501C113.511 70.0901 110.691 68.2401 110.521 68.1201C110.099 67.7978 109.567 67.6563 109.041 67.7266C108.515 67.797 108.038 68.0734 107.716 68.4951C107.394 68.9168 107.252 69.4492 107.322 69.9752C107.393 70.5013 107.669 70.9778 108.091 71.3001C109.876 72.4566 111.976 73.0297 114.101 72.9401C116.373 72.904 118.618 72.4427 120.721 71.5801C120.966 71.485 121.19 71.3425 121.38 71.1609C121.569 70.9792 121.722 70.7619 121.828 70.5213C121.933 70.2808 121.991 70.0218 121.997 69.759C122.002 69.4963 121.956 69.235 121.861 68.9901Z" fill="#0E384A"/>
</svg>

<svg width="256" height="256" fill="none" xmlns="http://www.w3.org/2000/svg"><path d="M230.881 177.81c-1.99-1.76-5.47-.77-9.89.47a38.94 38.94 0 01-6.15 1.41c-4.05.39-6.2 2.09-7.3 3.54-3.11-1.57-9.81-5.35-12.68-9.95-3.96-6.34-10.77-12.25-12.05-13.32-4.41-6.11-8.56-14.26-12.23-21.46-3.15-6.18-6.12-12.01-8.8-15.65a22.56 22.56 0 00-13.56-8.83c-.23-.05-.46-.1-.69-.14l-.21-.03a20.696 20.696 0 01-6.33-1.87c-2.55-1.35-3.99-3.49-3.99-7.18v-2.4a25.894 25.894 0 008.29-3.97A19.668 19.668 0 00162.26 108h6.69a2.006 2.006 0 002-2V88.14a26.416 26.416 0 00-5.82-16.58c.45-.683.762-1.447.92-2.25l.45-2.23a6.462 6.462 0 00-1.34-5.37 6.33 6.33 0 00-2.05-1.64l1.64-10.42a36.012 36.012 0 00-.91-15.404 36.01 36.01 0 00-19.57-22.929A36.021 36.021 0 00129.2 8h-2.96a36.018 36.018 0 00-34.641 26.246 36.02 36.02 0 00-.91 15.404l1.63 10.42a6.317 6.317 0 00-2.04 1.64 6.4 6.4 0 00-1.34 5.37l.44 2.23a6.473 6.473 0 006.33 5.2h.23C97.7 87.02 106.74 99.57 119 102.55v2.25c0 3.68-1.44 5.83-4 7.18a21.285 21.285 0 01-6.41 1.88l-.11.02c-.23.04-.47.09-.7.14a22.545 22.545 0 00-13.56 8.83c-2.68 3.64-5.65 9.47-8.8 15.65-3.67 7.2-7.82 15.35-12.23 21.46-1.28 1.07-8.09 6.98-12.05 13.32-2.87 4.6-9.57 8.38-12.68 9.95-1.1-1.45-3.25-3.15-7.3-3.54a38.908 38.908 0 01-6.15-1.41c-4.42-1.24-7.9-2.23-9.89-.47a3.561 3.561 0 00-1.06 3.4c.6 3.95 4.57 11.43 10.48 15.2a15.02 15.02 0 0012.65 1.87c1.06-.31 2.15-.69 3.27-1.13a15.242 15.242 0 00-.81 3.51 20.267 20.267 0 004.47 15.72c4.56 5.54 12.3 9.52 22.34 12.51-4.59.52-8.65 1.69-9.92 4.07a4.002 4.002 0 00.39 4.28c.34.51.68 1.04 1.02 1.57 2.63 4.1 5.9 9.19 11.96 9.19 3.485.081 6.97-.167 10.41-.74 1.4-.18 3.15-.41 5.4-.69a41.423 41.423 0 0019.31-7.41l1.69-1.23c3.84-.31 7.6-.62 11.27-.96 3.7.34 7.47.65 11.29.96l1.62 1.17a41.308 41.308 0 0019.39 7.47c2.25.29 4.01.51 5.41.69 3.432.573 6.911.821 10.39.74 6.05 0 9.32-5.09 11.95-9.18.34-.54.68-1.07 1.03-1.58a3.989 3.989 0 00.39-4.27c-1.27-2.37-5.3-3.55-9.86-4.08 15.5-4.57 28.51-12.48 26.75-28.23a14.799 14.799 0 00-.82-3.51c1.12.44 2.22.82 3.28 1.13a15.013 15.013 0 0012.65-1.87c5.91-3.77 9.88-11.25 10.48-15.2a3.565 3.565 0 00-1.059-3.4zm-74.93-30.35c4.21 7.61 9.38 15.51 11.36 18.52 1.87 2.85 4.86 8.76 4.89 8.82.09.181.208.346.35.49a106.778 106.778 0 0013.58 10.92c-10.92-1.05-24.48.85-36.12 2.98a63.854 63.854 0 011.66-12.72c.64-2.8 1.39-5.36 2.09-7.81 1.85-6.42 3.48-12.05 2.6-18.78-.101-.79-.241-1.6-.411-2.42h.001zm-17.09 43.9A95.119 95.119 0 01128 193.24h-.01c-1.54 0-5.85-.87-10.85-1.88a577.109 577.109 0 00-7.14-1.41 66.717 66.717 0 00-1.27-12.05h38.54a66.537 66.537 0 00-1.27 12.05c-2.53.48-4.92.96-7.14 1.41h.001zM99.64 149.88c-.88 6.73.75 12.36 2.6 18.78.7 2.45 1.45 5.01 2.09 7.81a63.928 63.928 0 011.66 12.72c-11.64-2.13-25.2-4.03-36.12-2.98a106.813 106.813 0 0013.58-10.92c.141-.144.26-.309.35-.49.03-.06 3.02-5.97 4.89-8.82 1.98-3.01 7.15-10.91 11.36-18.52-.17.82-.31 1.63-.41 2.42zm62.94-83.58l-.45 2.23a2.444 2.444 0 01-2.34 1.97c.01-.12.01-.24.01-.36v-6.79h.37a2.477 2.477 0 012.41 2.95zM93.3 68.53l-.44-2.23a2.462 2.462 0 012.41-2.95h.36v6.79c0 .12 0 .24.01.36a2.45 2.45 0 01-2.34-1.97zm6.34 1.95c-.01-.11-.01-.23-.01-.34V58.61a9.097 9.097 0 016.24-8.72 21.82 21.82 0 0012.48-9.73c3.7 5.79 13.33 16.23 35.13 17.49a2.458 2.458 0 012.32 2.46v10.03c0 .11 0 .23-.01.34a32.475 32.475 0 01-11.85 23.91 20.99 20.99 0 01-13.02 4.82h-6.4a18.21 18.21 0 01-2.97-.24c-12.44-1.98-21.75-16.1-21.91-28.49zM123 104.8v-1.64c.5.03 1.01.05 1.52.05h6.4c.7 0 1.4-.03 2.08-.09v1.68c0 5.17 2.23 8.21 5 10.06v6.97a10.001 10.001 0 01-20 0v-6.97c2.77-1.85 5-4.89 5-10.06zm-76.94 89.64a10.959 10.959 0 01-9.37-1.41 22.208 22.208 0 01-8.63-12.19c1.987.256 3.948.688 5.86 1.29a42.052 42.052 0 006.86 1.54c4.18.4 4.89 2.6 4.9 2.63a1.986 1.986 0 001.049 1.339 1.991 1.991 0 001.7.041c.47-.2 11.66-5.16 16.1-12.28 3.94-6.31 11.33-12.47 11.41-12.53.124-.11.238-.231.34-.36 4.65-6.38 8.93-14.79 12.7-22.2 3.07-6.02 5.97-11.72 8.46-15.09a18.78 18.78 0 019.001-6.7c.13 4.16.11 12.99-1.92 20.73a2.893 2.893 0 00-1.43-.96 2.99 2.99 0 00-3.59 1.57c-4.21 8.74-11.7 20.17-14.16 23.93-1.77 2.7-4.33 7.69-4.97 8.93-3.99 4.04-13.76 11.49-23.11 16.7a56.8 56.8 0 01-11.2 5.02zm66.55 41.53a38.22 38.22 0 01-17.39 6.63c-2.26.29-4.01.51-5.41.69-3.27.552-6.585.79-9.9.71-3.87 0-6.27-3.74-8.59-7.35-.36-.56-.71-1.11-1.06-1.63a1.15 1.15 0 01-.14-.24c.65-.77 4.82-2.29 14.04-2.29 1.21 0 2.33.04 3.42.08 1.611.1 3.228.1 4.84 0 6.45 1.16 13.44 2.11 20.83 2.94l-.64.46zm73.27-1.19c-.03.05-.07.13-.14.24-.35.53-.71 1.08-1.07 1.64-2.32 3.61-4.71 7.34-8.58 7.34a51.571 51.571 0 01-9.88-.71c-1.41-.18-3.16-.4-5.43-.68a38.002 38.002 0 01-17.46-6.69l-2.15-1.56a2.074 2.074 0 00-1.01-.37c-2.43-.2-4.85-.4-7.24-.6a33.152 33.152 0 001.94-9.07c.67.43 1.35.87 2.04 1.32.147.1.309.178.48.23l2.74.88a1.99 1.99 0 001.72-.24c2.8-1.86 9.09-4.05 12.85.95a11.504 11.504 0 008.31 5.04c.128.028.259.042.39.04 1.674.125 3.354.135 5.03.03 1.06-.04 2.2-.08 3.43-.08 9.21 0 13.38 1.52 14.03 2.29zm33.43-41.75a10.964 10.964 0 01-9.37 1.41 56.795 56.795 0 01-11.2-5.02c-9.35-5.21-19.12-12.66-23.11-16.7-.64-1.24-3.2-6.23-4.97-8.93-2.46-3.76-9.95-15.19-14.16-23.93a2.991 2.991 0 00-3.59-1.57 2.889 2.889 0 00-1.43.96c-2.03-7.74-2.05-16.57-1.92-20.73a18.784 18.784 0 019 6.7c2.49 3.37 5.39 9.07 8.46 15.09 3.77 7.41 8.05 15.82 12.7 22.2.102.129.216.25.34.36.08.06 7.47 6.22 11.41 12.53 4.44 7.12 15.63 12.08 16.1 12.28a1.961 1.961 0 002.36-.544c.183-.227.312-.492.38-.776.02-.09.73-2.29 4.91-2.69a42.073 42.073 0 006.86-1.54 31.195 31.195 0 015.84-1.29h.02a22.209 22.209 0 01-8.629 12.19h-.001z" fill="#0E384A"/><path d="M135.281 71.58a18.201 18.201 0 006.62 1.36c2.125.09 4.225-.483 6.01-1.64a2.002 2.002 0 00.36-2.76 2.024 2.024 0 00-2.78-.43c-.12.09-2.94 2.01-8.77-.26a1.999 1.999 0 00-1.44 3.73zm-13.42-2.59a1.999 1.999 0 00-1.814-1.274 1.993 1.993 0 00-.766.134c-5.77 2.24-8.59.39-8.76.27a2.001 2.001 0 10-2.43 3.18 10.258 10.258 0 006.01 1.64 18.205 18.205 0 006.62-1.36 2.003 2.003 0 001.276-1.821 2.02 2.02 0 00-.136-.769z" fill="#0E384A"/></svg>
